images/welcome/welcome.svg

<svg width="188" height="46" viewBox="0 0 188 46" fill="none" xmlns="http://www.w3.org/2000/svg">
<path d="M187.7 37.4V45.1H166.9V0.400002H187.7V8H174.5V18.8H185V26.5H174.5V37.4H187.7ZM154.9 0.400002H162.5V45.1H154.9V23.1L151.9 34.5H144.5L141.5 23.1V45.1H133.9V0.400002H141.5L148.3 22L154.9 0.400002ZM123 8H117.5V37.3H123V8ZM126 0.400002C128.5 0.400002 130.7 2.5 130.7 5.1V40.4C130.7 43 128.5 45.1 126 45.1H114.6C112 45.1 109.9 42.9 109.9 40.4V5.1C109.9 2.5 112 0.400002 114.6 0.400002H126ZM98 28.6L105.7 26.8V40.4C105.7 43 103.5 45.1 101 45.1H89.6C87 45.1 84.9 42.9 84.9 40.4V5.1C84.9 2.5 87 0.400002 89.6 0.400002H101C103.5 0.400002 105.7 2.5 105.7 5.1V14.2L98 16V8H92.5V37.3H98V28.6ZM81.2 37.4V45.1H63V0.400002H70.6V37.4H81.2ZM59.8 37.4V45.1H39V0.400002H59.8V8H46.6V18.8H57.1V26.5H46.6V37.4H59.8ZM27.6 0.400002H35.3L34 45.1H19.5L17.5 26.6L15.5 45.1H1L0 0.400002H7.60001L8.2 37.4H9L13.8 0.400002H21.4L26.3 37.4H27.1L27.6 0.400002Z" fill="#81B3D3"/>
</svg>

<svg width="188" height="46" fill="none" xmlns="http://www.w3.org/2000/svg"><path d="M187.7 37.4v7.7h-20.8V.4h20.8V8h-13.2v10.8H185v7.7h-10.5v10.9h13.2ZM154.9.4h7.6v44.7h-7.6v-22l-3 11.4h-7.4l-3-11.4v22h-7.6V.4h7.6l6.8 21.6L154.9.4ZM123 8h-5.5v29.3h5.5V8Zm3-7.6c2.5 0 4.7 2.1 4.7 4.7v35.3c0 2.6-2.2 4.7-4.7 4.7h-11.4c-2.6 0-4.7-2.2-4.7-4.7V5.1c0-2.6 2.1-4.7 4.7-4.7H126ZM98 28.6l7.7-1.8v13.6c0 2.6-2.2 4.7-4.7 4.7H89.6c-2.6 0-4.7-2.2-4.7-4.7V5.1c0-2.6 2.1-4.7 4.7-4.7H101c2.5 0 4.7 2.1 4.7 4.7v9.1L98 16V8h-5.5v29.3H98v-8.7Zm-16.8 8.8v7.7H63V.4h7.6v37h10.6Zm-21.4 0v7.7H39V.4h20.8V8H46.6v10.8h10.5v7.7H46.6v10.9h13.2ZM27.6.4h7.7L34 45.1H19.5l-2-18.5-2 18.5H1L0 .4h7.6l.6 37H9l4.8-37h7.6l4.9 37h.8l.5-37Z" fill="#81B3D3"/></svg>
